symbols/web/flood/materialsymbolsrounded/flood_wght500grad200_24px.svg

<svg xmlns="http://www.w3.org/2000/svg" height="24" width="24"><path d="M8.25 23.725q-1.525 0-2.175-.562-.65-.563-1.575-.563-.675 0-1.175.325T2.05 23.5q-.6.175-1.087-.225-.488-.4-.488-1.1 0-.425.3-.812.3-.388.85-.613.6-.25 1.163-.575.562-.325 1.712-.325 1.55 0 2.2.563.65.562 1.55.562t1.55-.562q.65-.563 2.2-.563 1.525 0 2.213.563.687.562 1.562.562.9 0 1.55-.562.65-.563 2.2-.563 1.125 0 1.7.325t1.15.575q.55.225.85.6.3.375.3.825 0 .7-.487 1.113-.488.412-1.063.212-.8-.25-1.287-.575-.488-.325-1.163-.325-.925 0-1.575.563-.65.562-2.175.562t-2.175-.562q-.65-.563-1.6-.563-.925 0-1.575.563-.65.562-2.175.562Zm-6.225-5.5q-.6.2-1.075-.212-.475-.413-.475-1.138 0-.425.313-.813.312-.387.837-.587.625-.25 1.2-.575.575-.325 1.65-.325.175 0 .363.012.187.013.337.038l-.825-2.95-.625.775q-.375.425-.913.5-.537.075-.987-.3-.45-.35-.513-.938-.062-.587.288-1.012l6.675-8q.575-.7 1.438-.938.862-.237 1.712.088l9.725 3.625q.55.2.788.713.237.512.012 1.062-.2.525-.712.762-.513.238-1.038.038l-.875-.325 1.925 7.2q.3.1.562.263.263.162.538.287.55.2.863.575.312.375.312.875 0 .675-.475 1.088-.475.412-1.1.212-.775-.225-1.25-.562-.475-.338-1.175-.338-.925 0-1.575.562-.65.563-2.175.563t-2.187-.563q-.663-.562-1.588-.562t-1.575.562q-.65.563-2.175.563t-2.175-.563q-.65-.562-1.575-.562-.675 0-1.175.325t-1.3.575ZM8.25 15.7q.675.025 1.263-.4.587-.425 1.287-.55L9.5 9.925l4.475-1.175 1.85 6.975q.775-.075 1.262-.45.488-.375 1.263-.55l-2.2-8.2L10.4 4.4 6.5 9.1l1.775 6.6H8.25Zm4.2-5.625Z"/></svg>

<svg xmlns="http://www.w3.org/2000/svg" height="24" width="24"><path d="M8.25 23.725Q6.725 23.725 6.075 23.163Q5.425 22.6 4.5 22.6Q3.825 22.6 3.325 22.925Q2.825 23.25 2.05 23.5Q1.45 23.675 0.963 23.275Q0.475 22.875 0.475 22.175Q0.475 21.75 0.775 21.363Q1.075 20.975 1.625 20.75Q2.225 20.5 2.788 20.175Q3.35 19.85 4.5 19.85Q6.05 19.85 6.7 20.413Q7.35 20.975 8.25 20.975Q9.15 20.975 9.8 20.413Q10.45 19.85 12 19.85Q13.525 19.85 14.213 20.413Q14.9 20.975 15.775 20.975Q16.675 20.975 17.325 20.413Q17.975 19.85 19.525 19.85Q20.65 19.85 21.225 20.175Q21.8 20.5 22.375 20.75Q22.925 20.975 23.225 21.35Q23.525 21.725 23.525 22.175Q23.525 22.875 23.038 23.288Q22.55 23.7 21.975 23.5Q21.175 23.25 20.688 22.925Q20.2 22.6 19.525 22.6Q18.6 22.6 17.95 23.163Q17.3 23.725 15.775 23.725Q14.25 23.725 13.6 23.163Q12.95 22.6 12 22.6Q11.075 22.6 10.425 23.163Q9.775 23.725 8.25 23.725ZM2.025 18.225Q1.425 18.425 0.95 18.013Q0.475 17.6 0.475 16.875Q0.475 16.45 0.788 16.062Q1.1 15.675 1.625 15.475Q2.25 15.225 2.825 14.9Q3.4 14.575 4.475 14.575Q4.65 14.575 4.838 14.587Q5.025 14.6 5.175 14.625L4.35 11.675L3.725 12.45Q3.35 12.875 2.812 12.95Q2.275 13.025 1.825 12.65Q1.375 12.3 1.312 11.712Q1.25 11.125 1.6 10.7L8.275 2.7Q8.85 2 9.713 1.762Q10.575 1.525 11.425 1.85L21.15 5.475Q21.7 5.675 21.938 6.188Q22.175 6.7 21.95 7.25Q21.75 7.775 21.238 8.012Q20.725 8.25 20.2 8.05L19.325 7.725L21.25 14.925Q21.55 15.025 21.812 15.188Q22.075 15.35 22.35 15.475Q22.9 15.675 23.213 16.05Q23.525 16.425 23.525 16.925Q23.525 17.6 23.05 18.013Q22.575 18.425 21.95 18.225Q21.175 18 20.7 17.663Q20.225 17.325 19.525 17.325Q18.6 17.325 17.95 17.887Q17.3 18.45 15.775 18.45Q14.25 18.45 13.588 17.887Q12.925 17.325 12 17.325Q11.075 17.325 10.425 17.887Q9.775 18.45 8.25 18.45Q6.725 18.45 6.075 17.887Q5.425 17.325 4.5 17.325Q3.825 17.325 3.325 17.65Q2.825 17.975 2.025 18.225ZM8.25 15.7Q8.925 15.725 9.513 15.3Q10.1 14.875 10.8 14.75L9.5 9.925L13.975 8.75L15.825 15.725Q16.6 15.65 17.087 15.275Q17.575 14.9 18.35 14.725L16.15 6.525L10.4 4.4L6.5 9.1L8.275 15.7Q8.275 15.7 8.262 15.7Q8.25 15.7 8.25 15.7ZM12.45 10.075Q12.45 10.075 12.45 10.075Q12.45 10.075 12.45 10.075Q12.45 10.075 12.45 10.075Q12.45 10.075 12.45 10.075Q12.45 10.075 12.45 10.075Q12.45 10.075 12.45 10.075Q12.45 10.075 12.45 10.075Q12.45 10.075 12.45 10.075Q12.45 10.075 12.45 10.075Q12.45 10.075 12.45 10.075Z"/></svg>
